X:1
T:Kendime
O:Turkey
Q:1/4=212
M:4/4
L:1/8
K:A
V:1 name="mandolin" snm="man"
%%MIDI channel 1
%%MIDI program 1 105
%%MIDI chordprog 24
%%MIDI bassprog 24
%%MIDI gchord f2ccfcc2
"F#m" {d}c8 |"F#m" {d}c8 |"F#m" {d}c8 |"F#m" {d}c8 ||\
"F#m"cBc2 cBc2 | cBcB cBc2 |"A"cBc2 cBc2 | cBcB cBc2 |
"Bm"B2 BB BA G2 |"F#m"A4 z2 GA |"B"B2 BB BA G2 |"F#m"A4    z4 |\
"Bm"B2 BB BA G2 |"F#m"A4 z2 GF |"E"G2 GG GF E2 |"F#m"F4 z2 AG | F4-F2 GA ||
   "Bm" B4 z4 | z8 | "E" z8 | dcd2 cBc2 |\
   "Bm" B4 z4 | z8 | "E" z8 | dcd2 cBc2 |
   "Bm" B4 z4 | z8 | "E" z8 | dcd2 cBc2 |\
   "A" c4 z4 | z8 | "C#m" z8 | z8 |
   "A" z8 | z8 | "C#m" z8 | z8 |\
   "Bm" z8 | z8 | "E" BAB2 BAB2 | BAB2 BAB2 |
   "F#m" cBc2 cBc2 |"C#m" z8 |"F#m" z4 FEFG | F4 z4 |\
   "F#m" z8 |"C#m" z8 |"F#m" cBc2 cBc2 | cBc2 z4 ||
V:2 name="vocal" snm="voc"
%%MIDI channel 1
%%MIDI program 1 105
%%MIDI channel 2
%%MIDI program 2 71
%%MIDI beat 75 65 50 1
 z8 | z8 | z8 | z8 ||
 z8 | z8 | z8 | z8 |
 z8 | z8 | z8 | z8 |\
 z8 | z8 | z8 | z8 | z8 ||
	 z2 B2 B B3 | B2 B2 A2 G2 | B4 AGz2 | z8 |\
         z2 B2 B B3 | B2 B2 A2 G2 | B4 AGz2 | z8 |
         z2 B2 B B3 | B2 B2 A2 G2 | B4 AGz2 | z8 |\
         z2 c2 c c3 | c2 c2 B2 A2 | B2 c2c4 | B2 c2c4 |
         z2 c2 c c3 | c2 c2 B2 A2 | B2 c2c4 | B2 c2c4 |\
         z2 B2 B B3 | B2 B2 A2 G2 |      z8 | z4 dcB2 |
	 c8 | e4 dcB2 | c8-|c4 dcB2 |\
	 c8 | e4 dcB2 | c8-|c4 z4 ||
W:Arrangement Copyright (C) 2009 Voluntocracy.
W:
W:Permission is granted to copy and distribute modified or unmodified versions of this music
W:provided the copyright notice and this permission notice are preserved on all copies and the
W:entire such work is distributed under the terms of a permission notice identical to this one.
